packages/core/src/svgs/usdglo.svg

<svg width="24" height="24" viewBox="0 0 24 24" fill="none" xmlns="http://www.w3.org/2000/svg">
<g clip-path="url(#clip0_31_20260)">
<path d="M0 0H24V24H0V0Z" fill="#F0F3FA"/>
<path d="M18.8571 12.0002C18.8571 13.8188 18.1347 15.563 16.8487 16.8489C15.5627 18.1349 13.8186 18.8574 12 18.8574C10.1813 18.8574 8.4372 18.1349 7.15123 16.8489C5.86527 15.563 5.14282 13.8188 5.14282 12.0002C5.14282 10.1816 5.86527 8.43744 7.15123 7.15148C8.4372 5.86551 10.1813 5.14307 12 5.14307C13.8186 5.14307 15.5627 5.86551 16.8487 7.15148C18.1347 8.43744 18.8571 10.1816 18.8571 12.0002ZM16.29 7.7145C15.9721 7.41018 15.5587 7.22541 15.12 7.19164C14.5611 7.1481 13.9992 7.22107 13.47 7.40592C12.87 7.59878 12.2314 7.90735 11.6014 8.31878C10.2901 9.17212 9.17188 10.2904 8.31854 11.6016C7.93379 12.1819 7.62688 12.8101 7.40568 13.4702C7.22083 13.9995 7.14786 14.5613 7.19139 15.1202C7.22495 15.5569 7.40811 15.9686 7.70997 16.2859C8.00139 16.5774 8.39568 16.7531 8.87996 16.8045C9.43887 16.848 10.0007 16.7751 10.53 16.5902C11.13 16.3974 11.7685 16.0888 12.3985 15.6774C13.7098 14.824 14.828 13.7058 15.6814 12.3945C16.0661 11.8143 16.3731 11.186 16.5943 10.5259C16.7871 9.92164 16.86 9.36021 16.8085 8.87592C16.774 8.44076 16.5909 8.03069 16.29 7.7145Z" fill="#133D38"/>
</g>
<defs>
<clipPath id="clip0_31_20260">
<rect width="24" height="24" fill="white"/>
</clipPath>
</defs>
</svg>

<svg xmlns="http://www.w3.org/2000/svg" width="24" height="24" fill="none" viewBox="0 0 24 24"><g clip-path="url(#a)"><path fill="#F0F3FA" d="M0 0h24v24H0z"/><path fill="#133D38" d="M18.857 12a6.857 6.857 0 1 1-13.714 0 6.857 6.857 0 0 1 13.714 0M16.29 7.715a1.9 1.9 0 0 0-1.17-.523 4.05 4.05 0 0 0-1.65.214c-.6.193-1.239.501-1.869.913a11.2 11.2 0 0 0-3.282 3.283 8 8 0 0 0-.913 1.868 4.05 4.05 0 0 0-.215 1.65c.034.437.217.849.519 1.166.291.291.686.467 1.17.518a4.05 4.05 0 0 0 1.65-.214 8 8 0 0 0 1.869-.913 11.2 11.2 0 0 0 3.282-3.282c.385-.58.692-1.209.913-1.87.193-.603.266-1.165.214-1.65a1.9 1.9 0 0 0-.518-1.16"/></g><defs><clipPath id="a"><path fill="#fff" d="M0 0h24v24H0z"/></clipPath></defs></svg>
